src/images/twitter.svg

<svg width="20" height="20" viewBox="0 0 20 20" fill="none" xmlns="http://www.w3.org/2000/svg">
<path d="M10 0C4.48602 0 0 4.48602 0 10C0 15.5136 4.48602 20 10 20C15.5136 20 20 15.5136 20 10C20 4.48602 15.5144 0 10 0ZM14.461 7.71127C14.4655 7.81036 14.4679 7.91026 14.4679 8.01015C14.4679 11.0517 12.1534 14.5577 7.91871 14.5577C6.61887 14.5577 5.40885 14.1779 4.39056 13.5245C4.57061 13.5459 4.75389 13.5568 4.93958 13.5568C6.01829 13.5568 7.01039 13.1886 7.79828 12.5715C6.79127 12.553 5.94095 11.8875 5.64811 10.9728C5.78829 10.9994 5.93289 11.0143 6.08072 11.0143C6.29058 11.0143 6.4944 10.9869 6.68734 10.9341C5.63442 10.723 4.8413 9.79296 4.8413 8.67719C4.8413 8.66753 4.8413 8.65746 4.8417 8.64819C5.15186 8.82019 5.50673 8.92411 5.88375 8.93579C5.26666 8.52373 4.86023 7.81882 4.86023 7.02046C4.86023 6.59832 4.97341 6.20277 5.17159 5.86281C6.30629 7.2557 8.0029 8.17167 9.91541 8.26835C9.87594 8.09957 9.8562 7.92435 9.8562 7.74349C9.8562 6.47265 10.8866 5.44188 12.1574 5.44188C12.8196 5.44188 13.417 5.72142 13.8375 6.16853C14.3624 6.06542 14.8538 5.87449 15.2997 5.60984C15.1265 6.14759 14.7627 6.59832 14.2862 6.88351C14.7523 6.82792 15.197 6.70466 15.6082 6.52139C15.3013 6.9822 14.911 7.38782 14.461 7.71127Z" fill="black"/>
</svg>

<svg width="20" height="20" fill="none" xmlns="http://www.w3.org/2000/svg"><path d="M10 0C4.486 0 0 4.486 0 10s4.486 10 10 10 10-4.486 10-10S15.514 0 10 0zm4.461 7.711c.005.1.007.2.007.3 0 3.04-2.315 6.547-6.55 6.547-1.3 0-2.51-.38-3.527-1.034a4.651 4.651 0 003.407-.952 2.304 2.304 0 01-2.15-1.6 2.319 2.319 0 001.04-.038 2.302 2.302 0 01-1.846-2.286c.31.172.665.276 1.042.288a2.3 2.3 0 01-.712-3.073 6.535 6.535 0 004.743 2.405 2.302 2.302 0 013.922-2.1A4.594 4.594 0 0015.3 5.61a2.312 2.312 0 01-1.014 1.274c.466-.056.911-.18 1.322-.363-.307.461-.697.867-1.147 1.19z" fill="#000"/></svg>
